images/prob_solver.svg

<svg enable-background="new 55.445 173.775 730 842" height="842" viewBox="55.445 173.775 730 842" width="730" xmlns="http://www.w3.org/2000/svg"><path d="m770.272 613.505c-5.173-57.656-11.665-115.181-17.461-172.775l-41.739-72.261c-44.429-24.373-89.498-47.455-134.86-70.117-44.522-22.242-88.577-45.41-133.03-67.786h-91.919c-.534.291-1.069.577-1.603.869-11.519 6.304-22.957 12.757-34.289 19.393-23.067 13.508-45.768 27.64-68.065 42.383-24.692 16.328-48.946 33.316-72.751 50.912-6.186 4.573-12.35 9.175-18.48 13.822-2.83 2.145-5.656 4.294-8.474 6.455-1.351 1.035-2.701 2.071-4.049 3.11-.104.081-.209.162-.331.256-7.275 5.648-14.504 11.357-21.709 17.095l-53.209 92.285c2.544 34.299 3.426 68.815 6.24 102.977 1.272 15.446 3.083 30.838 4.966 46.22.557 4.547 1.123 9.094 1.71 13.638.251 1.945.503 3.892.76 5.838.059.441.186 1.392.304 2.271.983 7.213 1.992 14.423 3.043 21.627 4.715 32.295 10.044 64.498 15.746 96.633.36 2.028.716 4.059 1.071 6.089l33.239 57.546c8.191 5.026 16.31 10.174 24.494 15.216 12.965 7.987 26.263 15.284 39.626 22.576 28.209 15.392 56.353 30.91 84.225 46.906 25.539 14.657 50.455 30.323 75.79 45.303h103.382c25.604-19.786 56.218-33.603 85.461-46.34 21.807-9.498 43.709-18.873 64.772-29.955 23.709-12.474 46.738-26.202 70.687-38.228 4.976-2.499 10.358-3.62 15.551-3.331l78.312-135.821c-2.674-30.921-4.637-61.894-7.41-92.806z" fill="#c91ae8"/><path d="m118.062 420.32 303.212-174.955 303.212 174.955v349.91l-303.212 174.955-303.212-174.955zm-61.826-35.518v420.945l365.038 210.472 364.38-210.472v-420.945l-364.38-210.472z" fill="#6d306d"/><path d="m133.847 429.528 287.427-165.747 286.769 165.747v331.494l-286.769 165.747-287.427-165.747zm-15.128-9.208v349.252l302.555 174.955 302.554-174.955v-349.252l-302.554-174.955z" opacity=".254"/><g stroke-width="1.333333" transform="matrix(.92436565 0 0 .92436565 822.4587 89.045197)"><path d="m-433.34 533.03898-216.36459-109.69791 216.36459-109.69793 216.3646 109.69793zm0 0" fill="#ffda00"/><path d="m-433.34 313.64314 216.3646 109.69793-216.3646 109.69791zm0 0" fill="#ffc200"/><path d="m-216.9754 676.67441-216.3646 109.69792-216.36459-109.69792v-253.33334l216.36459 109.69791 216.3646-109.69791zm0 0" fill="#ff636e"/><path d="m-433.34 533.03898 216.3646-109.69791v253.33334l-216.3646 109.69792zm0 0" fill="#3838ba"/><path d="m-364.00666 751.22128 80.66667-40.90104v-253.33334l-80.66667 40.90104zm0 0" fill="#e9edf5"/><path d="m-433.34 698.63795 216.3646-98.99479v-88.70834l-216.3646 98.99479zm0 0" fill="#ffc200"/><path d="m-364.00666 666.91399 80.66667-36.90625v-88.71355l-80.66667 36.91146zm0 0" fill="#3838ba"/><path d="m-502.67334 751.22128-80.66667-40.90104v-253.33334l80.66667 40.90104zm0 0" fill="#5a54e0"/><path d="m-433.34 698.63795-216.36459-98.99479v-88.70834l216.36459 98.99479zm0 0" fill="#fff"/><path d="m-502.67334 666.91399-80.66667-36.90625v-88.71355l80.66667 36.91146zm0 0" fill="#ffda00"/><path d="m-358.70978 351.48169-74.63022 35.05208v77.15105l150.00001-73.98959zm0 0" fill="#e9edf5"/><path d="m-583.34001 456.9869 80.66667 40.90104 69.33334-34.20312v-77.15105zm0 0" fill="#fff"/><path d="m-507.97022 351.48169-75.36979 38.21354 150.00001 73.98959v-77.15105zm0 0" fill="#5a54e0"/><path d="m-283.33999 456.9869-150.00001-70.45313v77.15105l69.33334 34.20312zm0 0" fill="#3838ba"/><path d="m-513.45979 424.16397 80.11979 39.52085 80.11979-39.52085-80.11979-37.6302zm0 0" fill="#ff636e"/><path d="m-433.34 463.68482 80.11979-39.52085-80.11979-37.6302zm0 0" fill="#f03049"/></g></svg>

<?xml version="1.0" encoding="UTF-8" standalone="no"?>
<!-- Generator: Adobe Illustrator 16.0.0, SVG Export Plug-In . SVG Version: 6.00 Build 0)  -->

<svg
   xmlns:dc="http://purl.org/dc/elements/1.1/"
   xmlns:cc="http://creativecommons.org/ns#"
   xmlns:rdf="http://www.w3.org/1999/02/22-rdf-syntax-ns#"
   xmlns:svg="http://www.w3.org/2000/svg"
   xmlns="http://www.w3.org/2000/svg"
   xmlns:sodipodi="http://sodipodi.sourceforge.net/DTD/sodipodi-0.dtd"
   xmlns:inkscape="http://www.inkscape.org/namespaces/inkscape"
   version="1.1"
   id="Layer_1"
   x="0px"
   y="0px"
   width="730px"
   height="842px"
   viewBox="55.445 173.775 730 842"
   enable-background="new 55.445 173.775 730 842"
   xml:space="preserve"
   sodipodi:docname="prob_solver.svg"
   inkscape:version="0.92.2 5c3e80d, 2017-08-06"><metadata
     id="metadata135"><rdf:RDF><cc:Work
         rdf:about=""><dc:format>image/svg+xml</dc:format><dc:type
           rdf:resource="http://purl.org/dc/dcmitype/StillImage" /><dc:title /></cc:Work></rdf:RDF></metadata><defs
     id="defs133" /><sodipodi:namedview
     pagecolor="#ffffff"
     bordercolor="#666666"
     borderopacity="1"
     objecttolerance="10"
     gridtolerance="10"
     guidetolerance="10"
     inkscape:pageopacity="0"
     inkscape:pageshadow="2"
     inkscape:window-width="1440"
     inkscape:window-height="779"
     id="namedview131"
     showgrid="false"
     inkscape:zoom="0.3963829"
     inkscape:cx="-188.57023"
     inkscape:cy="452.3283"
     inkscape:window-x="0"
     inkscape:window-y="1"
     inkscape:window-maximized="1"
     inkscape:current-layer="Layer_1" /><path
     style="fill:#c91ae8;fill-opacity:1;fill-rule:nonzero"
     inkscape:connector-curvature="0"
     id="path2"
     d="M 770.272,613.505 C 765.099,555.849 758.607,498.324 752.811,440.73 L 711.072,368.469 C 666.643,344.096 621.574,321.014 576.212,298.352 531.69,276.11 487.635,252.942 443.182,230.566 h -91.919 c -0.534,0.291 -1.069,0.577 -1.603,0.869 -11.519,6.304 -22.957,12.757 -34.289,19.393 -23.067,13.508 -45.768,27.64 -68.065,42.383 -24.692,16.328 -48.946,33.316 -72.751,50.912 -6.186,4.573 -12.35,9.175 -18.48,13.822 -2.83,2.145 -5.656,4.294 -8.474,6.455 -1.351,1.035 -2.701,2.071 -4.049,3.11 -0.104,0.081 -0.209,0.162 -0.331,0.256 -7.275,5.648 -14.504,11.357 -21.709,17.095 l -53.209,92.285 c 2.544,34.299 3.426,68.815 6.24,102.977 1.272,15.446 3.083,30.838 4.966,46.22 0.557,4.547 1.123,9.094 1.71,13.638 0.251,1.945 0.503,3.892 0.76,5.838 0.059,0.441 0.186,1.392 0.304,2.271 0.983,7.213 1.992,14.423 3.043,21.627 4.715,32.295 10.044,64.498 15.746,96.633 0.36,2.028 0.716,4.059 1.071,6.089 l 33.239,57.546 c 8.191,5.026 16.31,10.174 24.494,15.216 12.965,7.987 26.263,15.284 39.626,22.576 28.209,15.392 56.353,30.91 84.225,46.906 25.539,14.657 50.455,30.323 75.79,45.303 h 103.382 c 25.604,-19.786 56.218,-33.603 85.461,-46.34 21.807,-9.498 43.709,-18.873 64.772,-29.955 23.709,-12.474 46.738,-26.202 70.687,-38.228 4.976,-2.499 10.358,-3.62 15.551,-3.331 l 78.312,-135.821 c -2.674,-30.921 -4.637,-61.894 -7.41,-92.806 z" /><path
     style="fill:#6d306d"
     inkscape:connector-curvature="0"
     id="path122"
     d="M 118.062,420.32 421.274,245.365 724.486,420.32 V 770.23 L 421.274,945.185 118.062,770.23 V 420.32 M 56.236,384.802 v 420.945 l 365.038,210.472 364.38,-210.472 V 384.802 L 421.274,174.33 Z" /><path
     inkscape:connector-curvature="0"
     id="path126"
     d="M 133.847,429.528 421.274,263.781 708.043,429.528 V 761.022 L 421.274,926.769 133.847,761.022 V 429.528 M 118.719,420.32 V 769.572 L 421.274,944.527 723.828,769.572 V 420.32 L 421.274,245.365 Z"
     style="opacity:0.254" /><g
     id="g1358"
     transform="matrix(0.92436565,0,0,0.92436565,822.4587,89.045197)"><path
       id="path1264"
       d="M -433.34,533.03898 -649.70459,423.34107 -433.34,313.64314 -216.9754,423.34107 Z m 0,0"
       inkscape:connector-curvature="0"
       style="fill:#ffda00;stroke-width:1.33333337" /><path
       id="path1266"
       d="M -433.34,313.64314 -216.9754,423.34107 -433.34,533.03898 Z m 0,0"
       inkscape:connector-curvature="0"
       style="fill:#ffc200;stroke-width:1.33333337" /><path
       id="path1268"
       d="M -216.9754,676.67441 -433.34,786.37233 -649.70459,676.67441 V 423.34107 L -433.34,533.03898 -216.9754,423.34107 Z m 0,0"
       inkscape:connector-curvature="0"
       style="fill:#ff636e;stroke-width:1.33333337" /><path
       id="path1270"
       d="M -433.34,533.03898 -216.9754,423.34107 V 676.67441 L -433.34,786.37233 Z m 0,0"
       inkscape:connector-curvature="0"
       style="fill:#3838ba;stroke-width:1.33333337" /><path
       id="path1272"
       d="m -364.00666,751.22128 80.66667,-40.90104 V 456.9869 l -80.66667,40.90104 z m 0,0"
       inkscape:connector-curvature="0"
       style="fill:#e9edf5;stroke-width:1.33333337" /><path
       id="path1274"
       d="m -433.34,698.63795 216.3646,-98.99479 V 510.93482 L -433.34,609.92961 Z m 0,0"
       inkscape:connector-curvature="0"
       style="fill:#ffc200;stroke-width:1.33333337" /><path
       id="path1276"
       d="m -364.00666,666.91399 80.66667,-36.90625 v -88.71355 l -80.66667,36.91146 z m 0,0"
       inkscape:connector-curvature="0"
       style="fill:#3838ba;stroke-width:1.33333337" /><path
       id="path1278"
       d="m -502.67334,751.22128 -80.66667,-40.90104 V 456.9869 l 80.66667,40.90104 z m 0,0"
       inkscape:connector-curvature="0"
       style="fill:#5a54e0;stroke-width:1.33333337" /><path
       id="path1280"
       d="M -433.34,698.63795 -649.70459,599.64316 V 510.93482 L -433.34,609.92961 Z m 0,0"
       inkscape:connector-curvature="0"
       style="fill:#ffffff;stroke-width:1.33333337" /><path
       id="path1282"
       d="m -502.67334,666.91399 -80.66667,-36.90625 v -88.71355 l 80.66667,36.91146 z m 0,0"
       inkscape:connector-curvature="0"
       style="fill:#ffda00;stroke-width:1.33333337" /><path
       id="path1284"
       d="M -358.70978,351.48169 -433.34,386.53377 v 77.15105 l 150.00001,-73.98959 z m 0,0"
       inkscape:connector-curvature="0"
       style="fill:#e9edf5;stroke-width:1.33333337" /><path
       id="path1286"
       d="m -583.34001,456.9869 80.66667,40.90104 69.33334,-34.20312 v -77.15105 z m 0,0"
       inkscape:connector-curvature="0"
       style="fill:#ffffff;stroke-width:1.33333337" /><path
       id="path1288"
       d="m -507.97022,351.48169 -75.36979,38.21354 150.00001,73.98959 v -77.15105 z m 0,0"
       inkscape:connector-curvature="0"
       style="fill:#5a54e0;stroke-width:1.33333337" /><path
       id="path1290"
       d="M -283.33999,456.9869 -433.34,386.53377 v 77.15105 l 69.33334,34.20312 z m 0,0"
       inkscape:connector-curvature="0"
       style="fill:#3838ba;stroke-width:1.33333337" /><path
       id="path1292"
       d="m -513.45979,424.16397 80.11979,39.52085 80.11979,-39.52085 -80.11979,-37.6302 z m 0,0"
       inkscape:connector-curvature="0"
       style="fill:#ff636e;stroke-width:1.33333337" /><path
       id="path1294"
       d="m -433.34,463.68482 80.11979,-39.52085 -80.11979,-37.6302 z m 0,0"
       inkscape:connector-curvature="0"
       style="fill:#f03049;stroke-width:1.33333337" /></g></svg>
